shared/images/iconfont/kb-iconfont-exclamation-16.svg

<?xml version="1.0" encoding="UTF-8"?>
<svg width="16px" height="16px" viewBox="0 0 16 16" version="1.1" xmlns="http://www.w3.org/2000/svg" xmlns:xlink="http://www.w3.org/1999/xlink">
    <!-- Generator: sketchtool 49.3 (51167) - http://www.bohemiancoding.com/sketch -->
    <title>7FC620BF-8759-437A-A0F7-68C1A7FA1CEE</title>
    <desc>Created with sketchtool.</desc>
    <defs></defs>
    <g id="Colors,-icons" stroke="none" stroke-width="1" fill="none" fill-rule="evenodd">
        <g id="Icons-2" transform="translate(-462.000000, -337.000000)">
            <g id="kb-iconfont-exclamation-16" transform="translate(462.000000, 337.000000)">
                <rect id="icon-area" x="0" y="0" width="16" height="16"></rect>
                <path d="M8,0 C12.418278,0 16,3.581722 16,8 C16,12.418278 12.418278,16 8,16 C3.581722,16 0,12.418278 0,8 C0,3.581722 3.581722,0 8,0 Z M8,14 C11.3136887,13.9999521 13.9999521,11.3136887 14,8 C14,4.6862915 11.3137085,2 8,2 C4.6862915,2 2,4.6862915 2,8 C2,11.3137085 4.6862915,14 8,14 Z M6.94781526,11.3172372 C6.90647202,11.1971976 6.8999939,11.1514027 6.8999939,10.9786329 C6.8999939,10.8058631 6.90647202,10.7600682 6.94781526,10.6400286 C7.06903686,10.2881375 7.31028453,10.0469464 7.66225811,9.92575321 C7.78232588,9.88441966 7.82813152,9.87794305 8.00094181,9.87794305 C8.1737521,9.87794305 8.21955774,9.88441966 8.33962551,9.92575321 C8.69159909,10.0469464 8.93284676,10.2881375 9.05405446,10.6400286 C9.09541159,10.7600682 9.10187582,10.8058631 9.10187582,10.9786329 C9.10187582,11.1514027 9.09541159,11.1971976 9.05405446,11.3172372 C8.93331941,11.6677246 8.68859636,11.9131825 8.34486639,12.0285384 C8.19377034,12.0792533 7.96050217,12.0986414 7.81538379,12.0725682 C7.40983359,11.9996855 7.08569093,11.7174666 6.94781526,11.3172372 Z M8.04816705,8.99923622 L7.95314679,8.99923622 C7.69628588,8.99923622 7.48121045,8.80461077 7.45563205,8.5490266 L7.09988231,4.99430893 C7.05011248,4.49699951 7.41291501,4.05350415 7.91022443,4.00373432 C7.9401697,4.00073745 7.97024582,3.99923622 8.00034067,3.99923622 C8.50020347,3.99923622 8.90542232,4.40445508 8.90542232,4.90431787 C8.90542232,4.93437534 8.90392503,4.96441415 8.900936,4.99432263 L8.54568864,8.54895812 C8.52014279,8.80457203 8.3050543,8.99923622 8.04816705,8.99923622 Z" id="Combined-Shape" fill="#000000"></path>
            </g>
        </g>
    </g>
</svg>

<svg xmlns="http://www.w3.org/2000/svg" width="16" height="16" viewBox="0 0 16 16">
    <g fill="none" fill-rule="evenodd">
        <path d="M0 0h16v16H0z"/>
        <path fill="#000" d="M8 0a8 8 0 1 1 0 16A8 8 0 0 1 8 0zm0 14A6 6 0 1 0 8 2a6 6 0 0 0 0 12zm-1.052-2.683a.808.808 0 0 1-.048-.338c0-.173.006-.219.048-.339.121-.352.362-.593.714-.714a.808.808 0 0 1 .339-.048c.173 0 .219.006.339.048.352.12.593.362.714.714.041.12.048.166.048.339a.808.808 0 0 1-.048.338c-.12.35-.365.596-.71.712-.15.05-.383.07-.529.044a1.123 1.123 0 0 1-.867-.756zM8.048 9h-.095a.5.5 0 0 1-.497-.45L7.1 4.994a.905.905 0 1 1 1.8 0L8.547 8.55a.5.5 0 0 1-.498.45z"/>
    </g>
</svg>
